X: 34354
T: Return To Miltown, The
R: reel
M: 4/4
K: Ddorian
|:D2D/D/D D2ED|C2EC FCEC|DA,A,/A,/A, DEED|CDEG cAGE|
D2ED D2ED|C2EC FCEC|F2FD E2ED|1 CDEG cAGE:|2 CDEG cA^cA||
K:Dmaj
|:d3e f2ed|cdef g2fe|d3e f2ed|cAGE EDD2|
d2de f2ed|cdef g2fe|f2fd efed|1 cAGE EDDA:|2 cAGE EDDE||

